X: 20
T: Nonesuch
C: Traditional
O: England
R: polka
M: 2/4
L: 1/8
K: Dmin
a|"Dm" af ga|fe/f/ da|af ga|f2 da|
"F" af ga|"Dm" fe/f/ da|"F" af ga|"Dm" f2 d||
|:e|"C" ec de|"Dm" fe/f/ de|"Am" ec de|"Dm" f2 d:|
K: Dmaj
|:a|"D" af "A7" ga|"D" fe/f/ da|af "A7" ga|"D" f2 d:|
e|"A7" ec de|"D" fe/f/ de|"A7" ec de|"D" f2 de|
"A7" ec de|"D" fe/f/ de|"Em" ec "A7" de|"D" f2 d||

